public/favicon.svg

<svg width="24" height="24" viewBox="0 0 24 24" fill="none" xmlns="http://www.w3.org/2000/svg">
<path d="M12 4V2.21C12 1.76 11.46 1.54 11.15 1.86L8.35 4.65C8.15 4.85 8.15 5.16 8.35 5.36L11.14 8.15C11.46 8.46 12 8.24 12 7.79V6C15.31 6 18 8.69 18 12C18 12.79 17.85 13.56 17.56 14.25C17.41 14.61 17.52 15.02 17.79 15.29C18.3 15.8 19.16 15.62 19.43 14.95C19.8 14.04 20 13.04 20 12C20 7.58 16.42 4 12 4ZM12 18C8.69 18 6 15.31 6 12C6 11.21 6.15 10.44 6.44 9.75C6.59 9.39 6.48 8.98 6.21 8.71C5.7 8.2 4.84 8.38 4.57 9.05C4.2 9.96 4 10.96 4 12C4 16.42 7.58 20 12 20V21.79C12 22.24 12.54 22.46 12.85 22.14L15.64 19.35C15.84 19.15 15.84 18.84 15.64 18.64L12.85 15.85C12.7795 15.7809 12.6901 15.7342 12.5931 15.7158C12.4962 15.6974 12.3959 15.7082 12.305 15.7467C12.2141 15.7852 12.1366 15.8497 12.0823 15.9322C12.0281 16.0146 11.9994 16.1113 12 16.21V18Z" fill="black"/>
</svg>

<svg xmlns="http://www.w3.org/2000/svg" viewBox="0 0 24 24">
	<path fill="#000" d="M12 4V2.21c0-.45-.54-.67-.85-.35l-2.8 2.79c-.2.2-.2.51 0 .71l2.79 2.79c.32.31.86.09.86-.36V6c3.31 0 6 2.69 6 6c0 .79-.15 1.56-.44 2.25c-.15.36-.04.77.23 1.04c.51.51 1.37.33 1.64-.34c.37-.91.57-1.91.57-2.95c0-4.42-3.58-8-8-8m0 14c-3.31 0-6-2.69-6-6c0-.79.15-1.56.44-2.25c.15-.36.04-.77-.23-1.04c-.51-.51-1.37-.33-1.64.34C4.2 9.96 4 10.96 4 12c0 4.42 3.58 8 8 8v1.79c0 .45.54.67.85.35l2.79-2.79c.2-.2.2-.51 0-.71l-2.79-2.79a.5.5 0 0 0-.85.36z" />
</svg>
